img/favicon.svg

<svg width="36" height="36" viewBox="0 0 36 36" fill="none" xmlns="http://www.w3.org/2000/svg">
<g clip-path="url(#clip0_115_428)">
<path d="M18 11.25C14.2805 11.25 11.25 14.2805 11.25 18C11.25 21.7195 14.2805 24.75 18 24.75C21.7195 24.75 24.75 21.7195 24.75 18C24.75 14.2805 21.7195 11.25 18 11.25ZM35.325 16.9102L28.6664 13.5844L31.0219 6.525C31.3383 5.56875 30.4312 4.66172 29.482 4.98516L22.4227 7.34063L19.0898 0.675C18.6398 -0.225 17.3602 -0.225 16.9102 0.675L13.5844 7.33359L6.51797 4.97813C5.56172 4.66172 4.65469 5.56875 4.97812 6.51797L7.33359 13.5773L0.675 16.9102C-0.225 17.3602 -0.225 18.6398 0.675 19.0898L7.33359 22.4156L4.97812 29.482C4.66172 30.4383 5.56875 31.3453 6.51797 31.0219L13.5773 28.6664L16.9031 35.325C17.3531 36.225 18.6328 36.225 19.0828 35.325L22.4086 28.6664L29.468 31.0219C30.4242 31.3383 31.3312 30.4312 31.0078 29.482L28.6523 22.4227L35.3109 19.0969C36.225 18.6398 36.225 17.3602 35.325 16.9102ZM24.3633 24.3633C20.8547 27.8719 15.1453 27.8719 11.6367 24.3633C8.12812 20.8547 8.12812 15.1453 11.6367 11.6367C15.1453 8.12813 20.8547 8.12813 24.3633 11.6367C27.8719 15.1453 27.8719 20.8547 24.3633 24.3633Z" fill="black"/>
</g>
<defs>
<clipPath id="clip0_115_428">
<rect width="36" height="36" fill="white"/>
</clipPath>
</defs>
</svg>

<svg width="36" height="36" fill="none" xmlns="http://www.w3.org/2000/svg"><g clip-path="url(#a)"><path d="M18 11.25c-3.72 0-6.75 3.03-6.75 6.75s3.03 6.75 6.75 6.75 6.75-3.03 6.75-6.75-3.03-6.75-6.75-6.75zm17.325 5.66-6.659-3.326 2.356-7.059c.316-.956-.59-1.863-1.54-1.54l-7.06 2.356L19.09.675c-.45-.9-1.73-.9-2.18 0l-3.326 6.659-7.066-2.356c-.956-.316-1.863.59-1.54 1.54l2.356 7.06L.675 16.91c-.9.45-.9 1.73 0 2.18l6.659 3.326-2.356 7.066c-.316.956.59 1.863 1.54 1.54l7.06-2.356 3.325 6.659c.45.9 1.73.9 2.18 0l3.326-6.659 7.059 2.356c.956.316 1.863-.59 1.54-1.54l-2.356-7.06 6.659-3.325c.914-.457.914-1.737.014-2.187zm-10.962 7.453c-3.508 3.509-9.218 3.509-12.726 0-3.509-3.508-3.509-9.218 0-12.726 3.508-3.509 9.218-3.509 12.726 0 3.509 3.508 3.509 9.218 0 12.726z" fill="url(#b)"/></g><defs><radialGradient id="b" cx="0" cy="0" r="1" gradientUnits="userSpaceOnUse" gradientTransform="matrix(0 18 -17.9991 0 18 18)"><stop stop-color="#FCFF6C"/><stop offset="1" stop-color="#F90"/></radialGradient><clipPath id="a"><path fill="#fff" d="M0 0h36v36H0z"/></clipPath></defs></svg>
